X: 605
T: Ner de xin
L: 1/8
M: 2/4
K: G
G ED2 [I:setbarnb 1]| 
G ED2 | 
A A/ A/ A A/ A/ | 
A e d d | 
B d E E/ G/ | 
A4 | 
A> B d d | 
e2d B | 
A A d A | 
G> E D E | 
D4 | 
G/ G/ E/ G/ A/ A/ A/ B/ | 
A ED2 | 
G E/ G/ A A | 
G G/ E/D2 | 
A> B d d | 
A A B A | 
G G/ E/D2- | 
D2z2 |]

@@@ Tune index: 9479
